X:46
T:Cornhill Reel, The 
B:CRE2.236 (Cnoc an Arbhair)
F:file ID: cre.2/046cornh
Q:180
L:1/8
M:4/4
R:reel
K:Dm
D2 ED ADED|C2 EG cAGE|D2 ED ADED|AGAG EDCE|
D3D ADED|C2 EG cAGE|D3D ADED|DEAG ED D2||
Addc d2 dc|AGA=B c2-c2|Addc d2-d2|eaag eddc|
Addc d3c|AGA=B c2-c2|GAcd eged|cAGE ED D2||
add2 a2 ad|gcc2 gcec|add2 a2 ag|eaag edde|
add2 adbd|gcc2 gggA|GAcd eged|cAGE EDCE||

%%%

